X: 100094
M: C|
L: 1/8
K: F
(c>B) |\
afcA fcAF | CFAc fcag | fgef dbca | BgAf G2(fg) |
afcA fcAF | CFAc fcag | f>c~c2 A>c~c2 | dfeg f2 :|


